icons/solid/arrow-left-circle.svg

<svg width="24" height="24" viewBox="0 0 24 24" fill="none" xmlns="http://www.w3.org/2000/svg">
<path fill-rule="evenodd" clip-rule="evenodd" d="M12 2.25C6.61522 2.25 2.25 6.61522 2.25 12C2.25 17.3848 6.61522 21.75 12 21.75C17.3848 21.75 21.75 17.3848 21.75 12C21.75 6.61522 17.3848 2.25 12 2.25ZM7.71967 11.4697C7.57902 11.6103 7.5 11.8011 7.5 12C7.5 12.1989 7.57902 12.3897 7.71967 12.5303L10.7197 15.5303C11.0126 15.8232 11.4874 15.8232 11.7803 15.5303C12.0732 15.2374 12.0732 14.7626 11.7803 14.4697L10.0607 12.75H15.75C16.1642 12.75 16.5 12.4142 16.5 12C16.5 11.5858 16.1642 11.25 15.75 11.25L10.0607 11.25L11.7803 9.53033C12.0732 9.23744 12.0732 8.76256 11.7803 8.46967C11.4874 8.17678 11.0126 8.17678 10.7197 8.46967L7.71967 11.4697Z" fill="#0F172A"/>
</svg>

<svg xmlns="http://www.w3.org/2000/svg" viewBox="0 0 24 24" fill="currentColor" aria-hidden="true" data-slot="icon">
  <path fill-rule="evenodd" d="M12 2.25c-5.385 0-9.75 4.365-9.75 9.75s4.365 9.75 9.75 9.75 9.75-4.365 9.75-9.75S17.385 2.25 12 2.25Zm-4.28 9.22a.75.75 0 0 0 0 1.06l3 3a.75.75 0 1 0 1.06-1.06l-1.72-1.72h5.69a.75.75 0 0 0 0-1.5h-5.69l1.72-1.72a.75.75 0 0 0-1.06-1.06l-3 3Z" clip-rule="evenodd"/>
</svg>
